X:1
T:Epiphany (Filby), 10s.11s.D Irregular
T:Epiphany (Filby), 10s.11s.D Irregular
T:William Charles Filby, 1861
T:Public Domain Courtesy of the Cyber Hymnal™
C:William Charles Filby, 1861
Z:Public Domain
Z:Courtesy of the Cyber Hymnal™
%%score ( 1 2 ) ( 3 4 )
L:1/8
M:3/4
K:C
V:1 treble 
V:2 treble 
V:3 bass 
V:4 bass 
V:1
 [EG]3 [FA] [EG]2 | [Ge]3 [Gd] [Gc]2 | [Fc]2 [FB]2 [FA]2 | [EG]4 [CE]2 | [CE]2 [CF]2 [CG]2 | %5
 [CA]2 [FB]2 [Ec]2 | [Ge]2 [Gd]2 [^Fc]2 | (c2 B2 A2) | [EG]3 [FA] [EG]2 | [Ge]3 [Gd] [Gc]2 | %10
 [Fc]2 [FB]2 [FA]2 | [EG]2 [CE]2 [CE]2 | [Cc]2 [Ec]2 [Gc]2 | [Fc]2 [FA]2 [DF]2 | %14
 [CE]3 [DF] [B,D]2 | C4 [CE]2 | [CE]3 [DF] [CE]2 | [Ec]3 [EB] [EA]2 | [EA]2 [E^G]2 [EA]2 | %19
 [EB]2 E2 E2 | [B,E]3 [B,F] E2 | [Ee]3 [Ed] [Ec]2 | [^Fc]2 [FB]2 [Fc]2 | [Gd]6 | [FG]3 [FA] [FG]2 | %25
 [Ee]3 [Fd] [Gc]2 | [Fc]2 [Ff]2 [Fd]2 | (c2 B2) [FA]2 | [FG]2 [DG]2 [EG]2 | [FG]2 [DG]2 [Gc]2 | %30
 [Fd]2 [FA]2 [FB]2 | [Ec]6 |] %32
V:2
 x6 | x6 | x6 | x6 | x6 | x6 | x6 | F6 | x6 | x6 | x6 | x6 | x6 | x6 | x6 | C4 x2 | x6 | x6 | x6 | %19
 x2 E2 E2 | x4 E2 | x6 | x6 | x6 | x6 | x6 | x6 | F4 x2 | x6 | x6 | x6 | x6 |] %32
V:3
 [C,C]3 [C,C] [C,C]2 | [C,C]3 [D,B,] [E,C]2 | [F,A,]2 [F,B,]2 [F,C]2 | [C,C]4 [C,G,]2 | %4
 [C,G,]2 [C,A,]2 [C,E,]2 | F,2 [D,F,]2 [C,G,]2 | [C,C]2 [D,B,]2 [D,D]2 | D6 | [CE]3 [C,C] [C,C]2 | %9
 [C,C]3 [D,C] [E,_B,]2 | [F,A,]2 [F,B,]2 [F,C]2 | [C,C]2 [C,G,]2 [C,G,]2 | %12
 [C,E,]2 [C,G,]2 [E,_B,]2 | [F,A,]2 [F,C]2 [F,A,]2 | G,3 G, [G,,F,]2 | [C,E,]4 [A,,A,]2 | %16
 [A,,A,]3 [A,,A,] [A,,A,]2 | [A,,A,]3 [B,,^G,] [C,A,]2 | [C,A,]2 [B,,D]2 [A,,C]2 | %19
 [E,^G,]2 [E,G,]2 [E,G,]2 | [D,^G,]3 [D,G,] [D,G,]2 | [C,A,]3 [B,,^G,] [A,,A,]2 | %22
 [D,A,]2 [D,A,]2 [D,A,]2 | [G,,B,]6 | [B,,D]3 [B,,G,] [B,,G,]2 | [C,_B,]3 [D,B,] [E,B,]2 | %26
 [F,A,]2 [F,A,]2 [F,A,]2 | [D,D]4 [D,D]2 | [G,D]2 [G,B,]2 [G,C]2 | [G,D]2 [G,B,]2 [E,C]2 | %30
 [F,A,]2 [F,A,]2 G,2 | [C,G,]6 |] %32
V:4
 x6 | x6 | x6 | x6 | x6 | F,2 x4 | x6 | (G,4 A,B,) | x6 | x6 | x6 | x6 | x6 | x6 | G,3 G, x2 | x6 | %16
 x6 | x6 | x6 | x6 | x6 | x6 | x6 | x6 | x6 | x6 | x6 | x6 | x6 | x6 | x4 G,2 | x6 |] %32

